svgs/duotone/chart-user.svg

<svg xmlns="http://www.w3.org/2000/svg" viewBox="0 0 640 512"><!-- Font Awesome Pro 6.0.0-alpha2 by @fontawesome - https://fontawesome.com License - https://fontawesome.com/license (Commercial License) --><defs><style>.fa-secondary{opacity:.4}</style></defs><path d="M592 0H208C181.5 0 160 22.25 160 49.625V96C183.418 96 205.096 102.781 224 113.805V64H576V352H287.313C309.387 368.484 326.848 390.496 338.072 416H592C618.498 416 639.998 393.75 639.998 366.375V49.625C639.998 22.25 618.498 0 592 0ZM311.998 218L366.998 273C376.373 282.375 391.623 282.375 400.998 273L472.998 201L497.248 225.25C508.623 236.625 527.998 228.625 527.998 212.5V124C527.998 117.375 522.623 112 515.998 112H427.498C411.373 112 403.373 131.375 414.748 142.75L438.998 167L383.998 222L328.998 167C319.623 157.625 304.373 157.625 294.998 167L280.248 181.75C284.998 195.125 287.998 209.125 287.998 224C287.998 230.875 286.998 237.375 285.998 244L311.998 218Z" class="fa-secondary"/><path d="M160 320C213.02 320 256 277.016 256 224C256 170.98 213.02 128 160 128C106.982 128 64 170.98 64 224C64 277.016 106.982 320 160 320ZM192 352H128C57.307 352 0 409.305 0 480C0 497.672 14.326 512 32 512H288C305.674 512 320 497.672 320 480C320 409.305 262.693 352 192 352Z" class="fa-primary"/></svg>

<svg xmlns="http://www.w3.org/2000/svg" viewBox="0 0 640 512"><!--! Font Awesome Pro 6.3.0 by @fontawesome - https://fontawesome.com License - https://fontawesome.com/license (Commercial License) Copyright 2023 Fonticons, Inc. --><defs><style>.fa-secondary{opacity:.4}</style></defs><path class="fa-primary" d="M160 320c53.02 0 96-42.98 96-96c0-53.02-42.98-96-96-96C106.1 128 64 170.1 64 224C64 277 106.1 320 160 320zM192 352H128c-70.69 0-128 57.3-128 128c0 17.67 14.33 32 32 32h256c17.67 0 32-14.33 32-32C320 409.3 262.7 352 192 352z"/><path class="fa-secondary" d="M592 0h-384C181.5 0 160 22.25 160 49.63V96c23.42 0 45.1 6.781 64 17.8V64h352v288H287.3c22.07 16.48 39.54 38.5 50.76 64h253.9C618.5 416 640 393.8 640 366.4V49.63C640 22.25 618.5 0 592 0zM312 218l55.01 54.99c9.375 9.375 24.6 9.375 33.98 0L473 201l24.25 24.25C508.6 236.6 528 228.6 528 212.5V124c0-6.625-5.375-12-12-12h-88.5c-16.12 0-24.12 19.38-12.75 30.75L439 167L384 222l-55.01-55.01c-9.375-9.375-24.6-9.375-33.98 0L280.3 181.8C285 195.1 288 209.1 288 224c0 6.875-.9999 13.38-2 20L312 218z"/></svg>
